X:1
T:Menuett (WoO9)
T:Ludwig van Beethoven
T:pour violon, alto et violoncelle
%%score 1 2 3
L:1/8
M:3/4
K:D
V:1 treble nm="Violin"
V:2 treble nm="Violin"
V:3 bass nm="Violoncello"
V:1
|:!p! D>F | !tenuto!A2 !tenuto!A2 (d/c/d/B/) | A4 (F>D) | E2 [CG]2 [CF]2 | [A,E]4 (D>F) | %5
 !tenuto!A2 !tenuto!A2 (d/c/d/B/) | A4 d>f | e>c (A2 ^G2) | A4 ::[M:1/4]!p! (e/f/e/f/) | %10
[M:3/4] g2 z2 (f/g/f/g/) | a2 z2!f! (a>f) | .d.A .F.d .B.^G | .A2 .A2!p! (D>F) | %14
 (!tenuto!A2 !tenuto!A2) (d/c/d/B/) | !tenuto!A2 !tenuto!A2 (f/^e/f/d/) | %16
 A>F !tenuto!D2{/F} !tenuto!E2 |[M:2/4] D4 ::"^Trio" z2 |[M:3/4]!p! .A2 .A2 (ge/) z/ | %20
 .A2 .A2 (fd/) z/ | af/ z/ dA/ z/ BG/ z/ | FA/ z/ E2 (Ad/) z/ | fd/ z/ ge/ z/ z2 | %24
 ge/ z/ fd/ z/ z2 | af/ z/ ec/ z/ dB/ z/ |[M:2/4] A2 z2 :: z2 |[M:3/4] z6 | %29
!f! !>![Ae]2 !>![Ae]2 (CE/) z/ | AE/ z/ cA/ z/ ec/ z/ | !>![Ag]2 !>![Ag]2 z2 |!p! D2 D2 af/ z/ | %33
 D2 D2 bg/ z/ | fd/ z/ fd/ z/ ec/ z/ |[M:2/4] .d2 .D2!D.C.! :| %36
V:2
|: z2 |!p! !tenuto!F2 (!tenuto!D2 !tenuto!D2) | !tenuto!D2 !tenuto!F2 z2 | %3
 !tenuto!A,2 !tenuto!C2 !tenuto!D2 | C4 z2 | !tenuto!F2 (!tenuto!D2 !tenuto!D2) | %6
 !tenuto!D2 !tenuto!F2 !tenuto!^G,2 | !tenuto!A,2 !tenuto!C2 !tenuto!D2 | C4 :: %9
[M:1/4]!p! (C/D/C/D/) |[M:3/4] E2 z2 (D/E/D/E/) | F2 z2!f! A>F | .D.A .F.D .B,.^G, | .A,2 .A,2 z2 | %14
!p! !tenuto!F2 (!tenuto!D2 !tenuto!D2) | !tenuto!D2 !tenuto!F2 z2 | !tenuto!D2 z2 .C2 | %17
[M:2/4] D4 ::!p! (A,D/) z/ |[M:3/4] FD/ z/ GE/ z/ z2 | GE/ z/ FD/ z/ z2 | FD/ z/ A,D/ z/ B,E/ z/ | %22
 D2 C2 z2 | .A,2 .A,2 EC/ z/ | .A,2 .A,2 FD/ z/ | FD/ z/ CA,/ z/ B,^G,/ z/ |[M:2/4] A,2 z2 :: %27
!f! (A,C/) z/ |[M:3/4] EC/ z/ AE/ z/ cA/ z/ | !>![Ec]2 !>![Ec]2 (A,C/) z/ | EC/ z/ AE/ z/ cA/ z/ | %31
 !>![Ec]2 !>![Ec]2!p! (DF/) z/ | AF/ z/ dA/ z/ z2 | BG/ z/ dB/ z/ dB/ z/ | AF/ z/ AF/ z/ GE/ z/ | %35
[M:2/4] .F2 z2 :| %36
V:3
|: z2 |!p! !tenuto!D,2 (!tenuto!F,2 !tenuto!G,2) | !tenuto!F,2 !tenuto!D,2 z2 | %3
 !tenuto!C,2 (!tenuto!A,,2 !tenuto!D,2) | .A,,2 .A,2 z2 | !tenuto!D,2 (!tenuto!F,2 !tenuto!G,2) | %6
 !tenuto!F,2 !tenuto!D,2 !tenuto!B,,2 | !tenuto!C,2 !tenuto!E,2 !tenuto!E,,2 | .A,,2 .A,2 :: %9
[M:1/4] z2 |[M:3/4]!p! .A,,2 .A,2 z2 | (.D,2 .D2)!f! A,>F, | .D,.A,, .F,,.D, .B,,.^G,, | %13
 .A,,2 .A,,2 z2 |!p! !tenuto!D,2 (!tenuto!F,2 !tenuto!G,2) | !tenuto!F,2 !tenuto!D,2 z2 | %16
 F,2 .A,2 .A,,2 |[M:2/4] .D,2 .D,,2 :: z2 |[M:3/4]!p! .D,2 .C,2 z2 | .C,2 .D,2 z2 | %21
 .D,2 .F,2 .G,2 | .A,2 .A,,2 z2 | .D,2 .C,2 z2 | .C,2 .D,2 z2 | .D,2 .E,2 .E,,2 | %26
[M:2/4] A,,2 A,2 :: z2 |[M:3/4] z6 |!f! !>!A,,2 !>!A,,2 z2 | z6 | !>!A,,2 !>!A,,2 z2 | %32
!p! .F,2 .F,2 z D, | .G,2 .G,2 z G,, | .A,,2 .A,,2 .A,,2 |[M:2/4] .D,2 z2 :| %36

